X: 26797
T: Miller's Gin
R: reel
M: 4/4
K: Dmajor
|FAAA A3 (A|A2)EFEDDD|FAAA A3 (B|B2)EFEDDD|
BFGBA3(d|d2)EFEDDD|A2EFE3F|EDD2D4|A2EFE3F|EDD2D4:|
|:B,2C2D2E2|FE2 D2C3|G,B,DB, A,CEC|DFABA3 C|
B,2C2D2E2|FE2 D2C3|1 B,6 (A,2|A,6) DC:|2 B,6 (A,2|A,8)|G,6 (A,2|A,8)||

